; G-Code generated by Simplify3D(R) Version 3.1.1
; May 23, 2017 at 7:42:11 PM
; Settings Summary
;   processName,Process1
;   applyToModels,1of2 TSK Case v2
;   profileName,FT5 .4 (modified)
;   profileVersion,2017-05-07 10:29:20
;   baseProfile,Default
;   printMaterial,PLA
;   printQuality,High
;   printExtruders,
;   extruderName,Extruder 1
;   extruderToolheadNumber,0
;   extruderDiameter,0.4
;   extruderAutoWidth,1
;   extruderWidth,0.48
;   extrusionMultiplier,1
;   extruderUseRetract,1
;   extruderRetractionDistance,1.1
;   extruderExtraRestartDistance,0
;   extruderRetractionZLift,0.2
;   extruderRetractionSpeed,6000
;   extruderUseCoasting,0
;   extruderCoastingDistance,0.4
;   extruderUseWipe,0
;   extruderWipeDistance,5
;   primaryExtruder,0
;   layerHeight,0.2
;   topSolidLayers,4
;   bottomSolidLayers,4
;   perimeterOutlines,2
;   printPerimetersInsideOut,1
;   startPointOption,3
;   startPointOriginX,0
;   startPointOriginY,0
;   startPointOriginZ,0
;   sequentialIslands,0
;   spiralVaseMode,0
;   firstLayerHeightPercentage,100
;   firstLayerWidthPercentage,100
;   firstLayerUnderspeed,0.5
;   useRaft,0
;   raftExtruder,0
;   raftLayers,2
;   raftOffset,3
;   raftSeparationDistance,0.3
;   raftInfill,100
;   disableRaftBaseLayers,0
;   useSkirt,1
;   skirtExtruder,0
;   skirtLayers,1
;   skirtOutlines,4
;   skirtOffset,1
;   usePrimePillar,0
;   primePillarExtruder,999
;   primePillarWidth,12
;   primePillarLocation,7
;   primePillarSpeedMultiplier,1
;   useOozeShield,0
;   oozeShieldExtruder,999
;   oozeShieldOffset,2
;   oozeShieldOutlines,1
;   oozeShieldSidewallShape,1
;   oozeShieldSidewallAngle,30
;   oozeShieldSpeedMultiplier,1
;   infillExtruder,0
;   internalInfillPattern,Full Honeycomb
;   externalInfillPattern,Rectilinear
;   infillPercentage,20
;   outlineOverlapPercentage,25
;   infillExtrusionWidthPercentage,100
;   minInfillLength,5
;   infillLayerInterval,1
;   infillAngles,0,120,-120
;   overlapInfillAngles,0
;   generateSupport,1
;   supportExtruder,0
;   supportInfillPercentage,20
;   supportExtraInflation,0
;   denseSupportLayers,3
;   denseSupportInfillPercentage,85
;   supportLayerInterval,1
;   supportHorizontalPartOffset,0.45
;   supportUpperSeparationLayers,1
;   supportLowerSeparationLayers,1
;   supportType,0
;   supportGridSpacing,1
;   maxOverhangAngle,50
;   supportAngles,0
;   temperatureName,Extruder 1 Temperature,Heated Bed
;   temperatureNumber,0,0
;   temperatureSetpointCount,1,1
;   temperatureSetpointLayers,1,1
;   temperatureSetpointTemperatures,205,60
;   temperatureStabilizeAtStartup,1,1
;   temperatureHeatedBed,0,1
;   temperatureRelayBetweenLayers,0,0
;   temperatureRelayBetweenLoops,0,0
;   fanLayers,1,2
;   fanSpeeds,0,100
;   blipFanToFullPower,0
;   adjustSpeedForCooling,0
;   minSpeedLayerTime,15
;   minCoolingSpeedSlowdown,20
;   increaseFanForCooling,0
;   minFanLayerTime,45
;   maxCoolingFanSpeed,100
;   increaseFanForBridging,0
;   bridgingFanSpeed,100
;   use5D,1
;   relativeEdistances,0
;   allowEaxisZeroing,1
;   independentExtruderAxes,0
;   includeM10123,0
;   stickySupport,1
;   applyToolheadOffsets,0
;   gcodeXoffset,0
;   gcodeYoffset,0
;   gcodeZoffset,0
;   overrideMachineDefinition,1
;   machineTypeOverride,0
;   strokeXoverride,300
;   strokeYoverride,300
;   strokeZoverride,400
;   originOffsetXoverride,0
;   originOffsetYoverride,0
;   originOffsetZoverride,0
;   homeXdirOverride,-1
;   homeYdirOverride,-1
;   homeZdirOverride,-1
;   flipXoverride,1
;   flipYoverride,-1
;   flipZoverride,1
;   toolheadOffsets,0,0|0,0|0,0|0,0|0,0|0,0
;   overrideFirmwareConfiguration,0
;   firmwareTypeOverride,RepRap (Marlin/Repetier/Sprinter)
;   GPXconfigOverride,r2
;   baudRateOverride,115200
;   overridePrinterModels,0
;   printerModelsOverride
;   startingGcode,G21        ;metric values,G90        ;absolute positioning,M82        ;set extruder to absolute mode,M106      ;start with the fan off,G28        ;Home all,G1 Z15.0 F{travel_speed} ;move the platform down 15mm,G92 E0                  ;zero the extruded length,G1 F200 E3           ;extrude 3mm of feed stock,G92 E0                  ;zero the extruded length again,G1 F{travel_speed},;Put printing message on LCD screen,M117 Printing...
;   layerChangeGcode,
;   retractionGcode,
;   toolChangeGcode,
;   endingGcode,M104 S0                     	 ;extruder heater off,M140 S0                    	 ;heated bed heater off (if you have it),G91                                   	 ;relative positioning,G1 E-1 F300                           	 ;retract the filament a bit before lifting the nozzle, to release some of the pressure,G1 Z+0.5 E-5 X-20 Y-20 F{travel_speed} ;move Z up a bit and retract filament even more,G28 X0 Y0                              	 ;move X/Y to min endstops, so the head is out of the way,M84                         	 ;steppers off,G90                        	 ;absolute positioning
;   exportFileFormat,gcode
;   celebration,0
;   celebrationSong,Random Song
;   postProcessing,
;   defaultSpeed,2400
;   outlineUnderspeed,0.4
;   solidInfillUnderspeed,0.5
;   supportUnderspeed,0.6
;   rapidXYspeed,3000
;   rapidZspeed,1200
;   minBridgingArea,0.1
;   bridgingExtraInflation,0
;   bridgingExtrusionMultiplier,1
;   bridgingSpeedMultiplier,0.8
;   filamentDiameter,1.7
;   filamentPricePerKg,25
;   filamentDensity,1.25
;   useMinPrintHeight,0
;   minPrintHeight,49
;   useMaxPrintHeight,0
;   maxPrintHeight,49
;   useDiaphragm,0
;   diaphragmLayerInterval,20
;   robustSlicing,1
;   mergeAllIntoSolid,0
;   onlyRetractWhenCrossingOutline,1
;   retractBetweenLayers,1
;   useRetractionMinTravel,0
;   retractionMinTravel,3
;   retractWhileWiping,0
;   onlyWipeOutlines,1
;   avoidCrossingOutline,1
;   maxMovementDetourFactor,3
;   toolChangeRetractionDistance,12
;   toolChangeExtraRestartDistance,-0.5
;   toolChangeRetractionSpeed,600
;   allowThinWallGapFill,1
;   thinWallAllowedOverlapPercentage,40
;   horizontalSizeCompensation,0
G90
M82
M106 S0
M140 S60
M190 S60
M104 S205 T0
M109 S205 T0
G21        ;metric values
G90        ;absolute positioning
M82        ;set extruder to absolute mode
M106      ;start with the fan off
G28        ;Home all
G1 Z15.0 F{travel_speed} ;move the platform down 15mm
G92 E0                  ;zero the extruded length
G1 F200 E3           ;extrude 3mm of feed stock
G92 E0                  ;zero the extruded length again
G1 F{travel_speed}
;Put printing message on LCD screen
M117 Printing...
G92 E0
G1 E-1.1000 F6000
G1 Z0.400 F1200
; layer 1, Z = 0.2
T0
; tool H0.200 W0.480
; skirt
G1 X81.999 Y89.225 F3000
G1 Z0.200 F1200
G1 E0.0000 F1800
G92 E0
G1 X82.617 Y88.970 E0.0283 F1200
G1 X134.579 Y88.970 E2.2260
G1 X134.904 Y89.034 E2.2400
G1 X135.577 Y89.313 E2.2708
G1 X135.852 Y89.497 E2.2848
G1 X136.993 Y90.637 E2.3530
G1 X137.192 Y91.637 E2.3961
G1 X136.290 Y93.813 E2.4958
G1 X135.443 Y94.380 E2.5389
G1 X86.095 Y94.380 E4.6260
G1 X86.095 Y201.657 E9.1633
G1 X213.105 Y201.657 E14.5351
G1 X213.105 Y176.853 E15.5842
G1 X213.683 Y175.999 E15.6278
G1 X215.898 Y175.114 E15.7287
G1 X216.905 Y175.334 E15.7723
G1 X218.820 Y177.348 E15.8898
G1 X218.993 Y177.617 E15.9033
G1 X219.254 Y178.272 E15.9331
G1 X219.315 Y178.587 E15.9467
G1 X219.315 Y205.133 E17.0695
G1 X219.059 Y205.750 E17.0977
G1 X218.001 Y206.809 E17.1610
G1 X217.383 Y207.065 E17.1893
G1 X82.617 Y207.065 E22.8892
G1 X81.999 Y206.809 E22.9175
G1 X80.941 Y205.750 E22.9808
G1 X80.685 Y205.133 E23.0090
G1 X80.685 Y90.901 E27.8404
G1 X80.941 Y90.284 E27.8687
G1 X81.999 Y89.225 E27.9320
G1 X142.185 Y92.091 F3000
G92 E0
G1 X142.534 Y91.050 E0.0464 F1200
G1 X144.206 Y89.869 E0.1330
G1 X144.578 Y89.497 E0.1552
G1 X144.853 Y89.313 E0.1692
G1 X145.526 Y89.034 E0.2001
G1 X145.851 Y88.970 E0.2141
G1 X159.067 Y88.969 E0.7730
G1 X159.652 Y89.196 E0.7996
G1 X160.689 Y90.142 E0.8589
G1 X160.969 Y90.704 E0.8855
G1 X162.456 Y106.786 E1.5686
G1 X217.383 Y106.786 E3.8917
G1 X218.001 Y107.042 E3.9200
G1 X219.059 Y108.100 E3.9833
G1 X219.315 Y108.718 E4.0115
G1 X219.315 Y151.238 E5.8099
G1 X219.306 Y151.363 E5.8152
G1 X219.264 Y151.636 E5.8269
G1 X219.236 Y151.759 E5.8322
G1 X217.908 Y156.059 E6.0226
G1 X216.852 Y156.722 E6.0753
G1 X213.918 Y156.279 E6.2008
G1 X213.105 Y155.334 E6.2535
G1 X213.105 Y112.996 E8.0442
G1 X158.536 Y112.996 E10.3521
G1 X157.950 Y112.769 E10.3787
G1 X156.913 Y111.824 E10.4381
G1 X156.633 Y111.261 E10.4646
G1 X155.146 Y95.180 E11.1477
G1 X143.847 Y95.180 E11.6256
G1 X142.961 Y94.531 E11.6720
G1 X142.185 Y92.091 E11.7803
G1 X142.690 Y92.095 F3000
G92 E0
G1 X142.940 Y91.352 E0.0332 F1200
G1 X144.516 Y90.237 E0.1148
G1 X144.884 Y89.870 E0.1368
G1 X145.080 Y89.738 E0.1468
G1 X145.666 Y89.496 E0.1736
G1 X145.898 Y89.450 E0.1836
G1 X158.977 Y89.450 E0.7368
G1 X159.395 Y89.612 E0.7558
G1 X160.299 Y90.436 E0.8075
G1 X160.499 Y90.838 E0.8265
G1 X162.018 Y107.266 E1.5243
G1 X217.288 Y107.266 E3.8619
G1 X217.729 Y107.449 E3.8821
G1 X218.652 Y108.372 E3.9373
G1 X218.835 Y108.813 E3.9575
G1 X218.835 Y151.220 E5.7511
G1 X218.828 Y151.310 E5.7549
G1 X218.792 Y151.547 E5.7650
G1 X218.772 Y151.635 E5.7688
G1 X217.501 Y155.747 E5.9509
G1 X216.747 Y156.221 E5.9885
G1 X214.166 Y155.831 E6.0990
G1 X213.585 Y155.156 E6.1366
G1 X213.585 Y112.516 E7.9401
G1 X158.626 Y112.516 E10.2645
G1 X158.207 Y112.354 E10.2835
G1 X157.303 Y111.530 E10.3353
G1 X157.103 Y111.128 E10.3542
G1 X155.584 Y94.700 E11.0520
G1 X144.004 Y94.700 E11.5418
G1 X143.371 Y94.237 E11.5750
G1 X142.690 Y92.095 E11.6700
G1 X136.693 Y91.588 F3000
G92 E0
G1 X135.903 Y93.495 E0.0873 F1200
G1 X135.297 Y93.900 E0.1181
G1 X85.615 Y93.900 E2.2194
G1 X85.615 Y202.137 E6.7972
G1 X213.585 Y202.137 E12.2097
G1 X213.585 Y177.000 E13.2728
G1 X213.998 Y176.390 E13.3040
G1 X215.939 Y175.615 E13.3924
G1 X216.659 Y175.772 E13.4235
G1 X218.441 Y177.645 E13.5329
G1 X218.564 Y177.838 E13.5426
G1 X218.792 Y178.408 E13.5685
G1 X218.835 Y178.632 E13.5782
G1 X218.835 Y205.037 E14.6950
G1 X218.652 Y205.479 E14.7152
G1 X217.729 Y206.402 E14.7704
G1 X217.288 Y206.585 E14.7906
G1 X82.712 Y206.585 E20.4824
G1 X82.271 Y206.402 E20.5026
G1 X81.348 Y205.478 E20.5578
G1 X81.165 Y205.037 E20.5780
G1 X81.165 Y90.997 E25.4013
G1 X81.348 Y90.556 E25.4215
G1 X82.271 Y89.632 E25.4767
G1 X82.712 Y89.450 E25.4969
G1 X134.532 Y89.450 E27.6886
G1 X134.764 Y89.496 E27.6986
G1 X135.350 Y89.738 E27.7254
G1 X135.546 Y89.870 E27.7354
G1 X136.550 Y90.874 E27.7955
G1 X136.693 Y91.588 E27.8263
G1 X136.193 Y91.538 F3000
G92 E0
G1 X135.515 Y93.177 E0.0750 F1200
G1 X135.152 Y93.420 E0.0935
G1 X85.135 Y93.420 E2.2089
G1 X85.135 Y202.617 E6.8274
G1 X214.065 Y202.617 E12.2804
G1 X214.065 Y177.147 E13.3576
G1 X214.313 Y176.781 E13.3763
G1 X215.981 Y176.115 E13.4523
G1 X216.412 Y176.209 E13.4710
G1 X218.061 Y177.943 E13.5722
G1 X218.135 Y178.059 E13.5780
G1 X218.329 Y178.543 E13.6000
G1 X218.355 Y178.678 E13.6058
G1 X218.355 Y204.942 E14.7167
G1 X218.245 Y205.207 E14.7288
G1 X217.457 Y205.995 E14.7759
G1 X217.192 Y206.105 E14.7880
G1 X82.808 Y206.105 E20.4718
G1 X82.543 Y205.995 E20.4839
G1 X81.755 Y205.207 E20.5310
G1 X81.645 Y204.942 E20.5432
G1 X81.645 Y91.092 E25.3584
G1 X81.755 Y90.827 E25.3705
G1 X82.543 Y90.039 E25.4176
G1 X82.808 Y89.930 E25.4298
G1 X134.485 Y89.930 E27.6154
G1 X134.624 Y89.957 E27.6214
G1 X135.122 Y90.164 E27.6442
G1 X135.240 Y90.242 E27.6502
G1 X136.108 Y91.110 E27.7021
G1 X136.193 Y91.538 E27.7206
G1 X143.195 Y92.099 F3000
G92 E0
G1 X143.345 Y91.653 E0.0199 F1200
G1 X144.827 Y90.605 E0.0967
G1 X145.190 Y90.242 E0.1184
G1 X145.308 Y90.164 E0.1244
G1 X145.806 Y89.957 E0.1472
G1 X145.945 Y89.930 E0.1532
G1 X158.887 Y89.930 E0.7006
G1 X159.138 Y90.027 E0.7119
G1 X159.910 Y90.730 E0.7561
G1 X160.030 Y90.971 E0.7675
G1 X161.581 Y107.746 E1.4800
G1 X217.192 Y107.746 E3.8321
G1 X217.457 Y107.856 E3.8442
G1 X218.245 Y108.644 E3.8913
G1 X218.355 Y108.909 E3.9034
G1 X218.355 Y151.202 E5.6922
G1 X218.351 Y151.256 E5.6945
G1 X218.320 Y151.457 E5.7031
G1 X218.308 Y151.510 E5.7054
G1 X217.095 Y155.435 E5.8792
G1 X216.643 Y155.720 E5.9018
G1 X214.413 Y155.383 E5.9971
G1 X214.065 Y154.978 E6.0197
G1 X214.065 Y112.036 E7.8359
G1 X158.715 Y112.036 E10.1769
G1 X158.464 Y111.939 E10.1883
G1 X157.693 Y111.235 E10.2325
G1 X157.573 Y110.994 E10.2439
G1 X156.022 Y94.220 E10.9564
G1 X144.160 Y94.220 E11.4580
G1 X143.781 Y93.942 E11.4779
G1 X143.195 Y92.099 E11.5597
G1 X143.700 Y92.103 F3000
G92 E0
G1 X143.750 Y91.955 E0.0066 F1200
G1 X145.137 Y90.974 E0.0785
G1 X145.496 Y90.615 E0.0999
G1 X145.535 Y90.589 E0.1019
G1 X145.946 Y90.419 E0.1208
G1 X145.992 Y90.410 E0.1228
G1 X158.797 Y90.409 E0.6643
G1 X158.881 Y90.442 E0.6681
G1 X159.520 Y91.025 E0.7047
G1 X159.560 Y91.105 E0.7085
G1 X161.143 Y108.226 E1.4357
G1 X217.097 Y108.226 E3.8022
G1 X217.185 Y108.263 E3.8063
G1 X217.838 Y108.916 E3.8454
G1 X217.875 Y109.004 E3.8494
G1 X217.875 Y151.184 E5.6334
G1 X217.874 Y151.202 E5.6341
G1 X217.849 Y151.368 E5.6412
G1 X217.845 Y151.386 E5.6420
G1 X216.689 Y155.124 E5.8075
G1 X216.539 Y155.218 E5.8150
G1 X214.661 Y154.935 E5.8953
G1 X214.545 Y154.800 E5.9028
G1 X214.545 Y111.556 E7.7318
G1 X158.805 Y111.556 E10.0893
G1 X158.721 Y111.524 E10.0931
G1 X158.083 Y110.941 E10.1297
G1 X158.043 Y110.861 E10.1335
G1 X156.459 Y93.740 E10.8607
G1 X144.317 Y93.740 E11.3742
G1 X144.191 Y93.647 E11.3809
G1 X143.700 Y92.103 E11.4494
G1 X135.694 Y91.489 F3000
G92 E0
G1 X135.127 Y92.859 E0.0627 F1200
G1 X135.006 Y92.940 E0.0688
G1 X84.655 Y92.940 E2.1984
G1 X84.655 Y203.097 E6.8575
G1 X214.545 Y203.097 E12.3511
G1 X214.545 Y177.294 E13.4424
G1 X214.628 Y177.173 E13.4486
G1 X216.022 Y176.615 E13.5121
G1 X216.166 Y176.647 E13.5184
G1 X217.682 Y178.241 E13.6114
G1 X217.707 Y178.279 E13.6133
G1 X217.866 Y178.679 E13.6316
G1 X217.875 Y178.724 E13.6335
G1 X217.875 Y204.847 E14.7383
G1 X217.838 Y204.935 E14.7424
G1 X217.185 Y205.588 E14.7814
G1 X217.097 Y205.625 E14.7855
G1 X82.903 Y205.625 E20.4611
G1 X82.815 Y205.588 E20.4652
G1 X82.162 Y204.935 E20.5043
G1 X82.125 Y204.846 E20.5083
G1 X82.125 Y91.188 E25.3154
G1 X82.162 Y91.099 E25.3195
G1 X82.815 Y90.446 E25.3586
G1 X82.903 Y90.410 E25.3626
G1 X134.438 Y90.410 E27.5422
G1 X134.484 Y90.419 E27.5442
G1 X134.895 Y90.589 E27.5630
G1 X134.934 Y90.615 E27.5650
G1 X135.666 Y91.347 E27.6088
G1 X135.694 Y91.489 E27.6149
; inner perimeter
; outer perimeter
G1 X216.025 Y178.646 F3000
G92 E0
G1 X216.395 Y179.035 E0.0227 F480
G1 X216.395 Y204.145 E1.0847
G1 X216.025 Y204.145 E1.1003
G1 X216.025 Y178.646 E2.1788
G92 E0
G1 E-1.1000 F6000
G1 Z0.400 F1200
; inner perimeter
; outer perimeter
G1 X145.882 Y92.260 F3000
G1 Z0.200 F1200
G1 E0.0000 F6000
G92 E0
G1 X146.094 Y92.109 E0.0110 F480
G1 X146.314 Y91.890 E0.0241
G1 X158.146 Y91.889 E0.5246
G1 X159.794 Y109.706 E1.2813
G1 X216.395 Y109.706 E3.6752
G1 X216.395 Y151.064 E5.4244
G1 X216.025 Y152.261 E5.4774
G1 X216.025 Y110.076 E7.2616
G1 X159.456 Y110.076 E9.6542
G1 X157.809 Y92.260 E10.4109
G1 X145.882 Y92.260 E10.9154
G92 E0
G1 E-1.1000 F6000
G1 Z0.400 F1200
; support
G1 X135.678 Y94.800 F3000
G1 Z0.200 F1200
G1 E0.0000 F6000
G92 E0
G1 X142.542 Y94.800 E0.2904 F720
G1 X142.551 Y94.826 E0.2915
G1 X143.690 Y95.660 E0.3512
G1 X154.709 Y95.660 E0.8172
G1 X154.851 Y97.200 E0.8827
G1 X86.575 Y97.200 E3.7704
G1 X86.575 Y99.600 E3.8719
G1 X152.620 Y99.600 E6.6652
G1 X152.620 Y100.120 E6.6872
G1 X151.620 Y100.120 E6.7295
G1 X151.620 Y102.000 E6.8090
G1 X86.575 Y102.000 E9.5601
G1 X86.575 Y104.400 E9.6616
G1 X151.620 Y104.400 E12.4126
G1 X151.620 Y105.880 E12.4752
G1 X152.620 Y105.880 E12.5175
G1 X152.620 Y106.800 E12.5564
